X: 11762
Q: "Slow."
M: 3/4
L: 1/8
K: F
(F>G) |\
d2 c2 Ac | d2 f>A G(F/D/) | F2 F2 G>A | {A}c4 \
|: (f/g/a/g/) |\
f2 d2 Ac | d2 f>A G(F/D/) | F2 F2 G>A | {A}c4 :|


